X:135
T:Little Dun Mare - Persey
%%VWML:SBG-1-2-593-0
F:http://www.vwml.org/record/SBG/1/2/593
Z:Original Sibelius transcriptions by M. & S. Graebe
L:1/8
M:6/8
I:linebreak $
K:C
V:1 treble nm="P1"
V:2 treble 
V:1
 G | Gcc cBc | d2 B G2 G | ede g2 e | d2 G G2 f | e2 f g2 f | e2 f g2 g |$ gec cBc | d2 B G3 | %9
w: |||||||||
 GAB c3 | cBc d3 | c2 g gec | GAB c2 x :| %13
w: Tol- de- rol- dee!|Tol de rol dee!|Hi- te to de rol|tol de rol dee!|
V:2
 x | x6 | x6 | x6 | x6 | x6 | x6 |$ x6 | x6 | x6 | x6 | x3 gfe | dcB x3 :| %13
T:Little Dun Mare - Rickards
F:http://www.vwml.org/record/SBG/1/2/
Z:Original Sibelius transcriptions by M. & S. Graebe
M:6/8
I:linebreak $
K:G
V:1 treble nm="P1"
V:1
 G G | G2 B d2 B/ B/ | A2 G G2 G | G2 B d2 d | d e f d2 G | G G G A B c |$ d e f g2 f | d2 B G2 G | %8
 (GB) c d e d | B3/2 G/ G G3/2 G/ G | G3- G x2 | %11

